X:12352
T:Old Maids Of Galway
R:Reel
S:Seamus Egan
H:
N:
D:Solo Album #1 
Z:Adrian Scahill
M:4/4
L:1/8
K:G
BEE2 B2AF|EFDE FAA2|BEE2 B2AF|EFDE FDD2|\
BEE2 B2AF|EFDE FAA2|B3^c d2ec|dBAF e3^c||\
d2ed BdAB|d2ed Bee2|d2ed BdAF|EFDE FDD2|\
d2ed BdAB|d2ed Bee2|f3e d2^cA|(3B^cd AF EAA2||
